X:16
T:Shebag Shemore
T:Shebeg and Shemore
S:Bernie Waugh
R:Waltz
M:3/4
L:1/8
K:D
|:de|\
"D"{e}f3ed2|d2e2d2|"G"{A}B4A2|"D"{E}F4A2|\
"G"BABcd2|"A"e4de|"D"{e}f4(3efe|"Bm"d4"A"f2|
"G"B4e2|"F#m"A4BA|"Em"{E}F4(3EFE|"Bm"D4"A"f2|\
"G"B4e2|"A"A4dc|"D"d6-|d4:|
|:de|\
"D"{e}f3ed2|"A"edefa2|"G"{a}b4(3aba|"D"f3ed2|\
"A"edefa2|"Bm"f3ed2|"G"d4(3BdB|"F#m"A4BA|
"Em"{E}F4(3EFE|"Bm"D4"A"f2|"G"B4e2|"F#m"A4a2|\
"Em"bagfed|"A"e3d ce|"D"d3edc|d4:|

